public/images/shiba-inu-shib-logo 1.svg

<svg width="70" height="70" viewBox="0 0 70 70" fill="none" xmlns="http://www.w3.org/2000/svg">
<g clip-path="url(#clip0_337_1238)">
<path d="M50.951 6.42731C49.1553 8.20281 47.5101 10.1272 46.0478 12.1791L45.5854 12.0302C42.9187 11.1691 40.1553 10.6375 37.3704 10.4567C36.5316 10.393 33.4026 10.393 32.3811 10.4567C29.2951 10.6587 26.9295 11.1159 24.2413 12.0409C24.1338 12.0834 24.037 12.1153 23.9402 12.1472C22.4241 10.1059 20.7359 8.19218 18.8757 6.43795C27.8005 1.91946 38.2413 1.37724 47.5854 4.93887C48.5854 5.31098 49.5639 5.74688 50.5209 6.21468L50.951 6.42731Z" fill="#F00500"/>
<path d="M67.5962 46.7523C66.2413 50.5691 64.2091 54.1095 61.5747 57.1927C60.1446 58.8512 58.5639 60.3716 56.865 61.7537C52.8865 64.922 48.2413 67.1865 43.2843 68.3773C37.8005 69.685 32.08 69.685 26.5962 68.3773C21.6284 67.1865 16.994 64.922 13.0155 61.7537C11.3166 60.3716 9.73595 58.8512 8.30585 57.1927C0.7252 48.3365 -1.57588 36.1737 2.28434 25.2124C3.01552 23.1818 3.9295 21.2255 5.02628 19.365C5.53165 18.5144 6.15531 17.5576 6.45639 17.1642C7.48865 21.5551 8.75746 25.4144 9.23057 26.8072C9.19832 26.8816 9.15531 26.9667 9.1123 27.0411C6.60692 32.0593 5.25209 36.8967 4.9295 42.0425C4.9295 42.1063 4.91875 42.1807 4.91875 42.2445C4.83273 43.7861 4.87574 44.5197 5.1338 45.4871C5.94025 48.5172 8.42413 51.8556 12.3166 55.1301C18.6929 60.4885 27.3381 64.3585 33.8865 64.805C40.7145 65.2622 50.7897 61.3178 57.4994 55.5554C58.5532 54.6304 59.5424 53.6523 60.4671 52.6104C61.1338 51.8449 62.1231 50.5266 62.0478 50.5266C62.0263 50.5266 62.0478 50.5053 62.0908 50.4841C62.1231 50.4628 62.1553 50.4309 62.1338 50.4096C62.123 50.399 62.1446 50.3671 62.1768 50.3565C62.2091 50.3459 62.2306 50.3246 62.2198 50.3033C62.2091 50.2821 62.2198 50.2608 62.2628 50.2502C62.2951 50.2395 62.3058 50.2076 62.2951 50.1864C62.2843 50.1651 62.2951 50.1438 62.3166 50.1438C62.3381 50.1438 62.3596 50.112 62.3596 50.0907C62.3596 50.0694 62.3811 50.0375 62.4026 50.0375C62.4241 50.0375 62.4456 50.0163 62.4456 49.995C62.4779 49.91 62.5317 49.8249 62.5854 49.7505C62.7467 49.5059 63.3919 48.3683 63.4779 48.177C64.0908 46.8055 64.4779 45.5828 64.6607 44.3602C64.7467 43.7754 64.8005 42.7016 64.7575 42.4465C64.7467 42.4039 64.7467 42.3295 64.736 42.2126C64.7145 41.9999 64.7037 41.681 64.6822 41.362C64.6607 40.8836 64.6177 40.2138 64.5854 39.8842C64.1231 35.0574 62.8757 31.113 60.5101 26.9348C60.4134 26.7753 60.3274 26.6158 60.2736 26.4882C60.2521 26.4563 60.2413 26.4244 60.2306 26.4032C60.5639 25.4144 61.9295 21.2787 63.0155 16.5475L63.037 16.5688L63.1983 16.7814C63.4779 17.1536 64.2198 18.2593 64.5532 18.7908C66.0693 21.2361 67.2521 23.8622 68.0908 26.6052C70.037 33.2075 69.8757 40.2457 67.5962 46.7523Z" fill="#F00500"/>
<path d="M53.639 34.0514C53.6068 34.2215 53.1014 34.7318 52.596 35.104C51.1122 36.1778 48.4563 37.1772 45.7573 37.6556C44.2197 37.932 42.6821 37.9745 42.2197 37.7513C41.9186 37.6024 41.8756 37.4855 41.9831 37.1027C42.209 36.3053 42.9401 35.4335 44.0799 34.6149C44.6606 34.2003 47.0154 32.7862 48.1122 32.1909C49.9186 31.2127 51.381 30.628 52.3702 30.4898C52.6821 30.4473 53.0584 30.4366 53.1767 30.4898C53.3702 30.5642 53.5853 31.1277 53.6713 31.8081C53.7143 32.1696 53.6928 33.7644 53.639 34.0514Z" fill="black"/>
<path d="M28.3052 37.5695C28.2407 37.6971 27.9181 37.8353 27.5525 37.8884C27.1869 37.9416 26.0687 37.9097 25.4343 37.8353C23.1547 37.5376 20.7353 36.8465 18.9719 35.996C17.9826 35.5176 17.273 35.0391 16.7461 34.5182L16.445 34.2099L16.4127 33.8059C16.359 33.1042 16.3697 31.9985 16.4558 31.6051C16.5095 31.2755 16.6278 30.9565 16.7891 30.6695C16.8751 30.5632 16.8751 30.5632 17.2622 30.5632C17.7353 30.5632 18.1332 30.6376 18.7783 30.8396C20.1009 31.2436 22.0687 32.2217 24.4665 33.6464C26.445 34.8159 27.1869 35.39 27.7568 36.1767C28.1439 36.6658 28.402 37.3569 28.3052 37.5695Z" fill="black"/>
<path d="M43.5319 52.3667C43.5319 52.3986 43.4029 52.9089 43.2416 53.5149C43.0803 54.1209 42.9513 54.61 42.9513 54.6313C42.833 54.6419 42.7255 54.6525 42.6072 54.6419H42.2631L41.79 55.7476C41.5319 56.3536 41.2954 56.9171 41.2631 57.0021L41.1986 57.151L40.9728 56.7895L40.747 56.428V53.483L40.661 53.5043C40.4782 53.5468 39.1771 53.7169 38.6072 53.7701C36.2524 54.004 33.8868 53.9508 31.5427 53.6212C31.1663 53.5681 30.8438 53.5256 30.833 53.5362C30.8223 53.5468 30.833 54.2272 30.8545 55.0672L30.8868 56.5769L30.704 56.8533C30.6072 57.0021 30.5104 57.1297 30.5104 57.1403C30.4782 57.1722 30.3706 57.0021 30.1233 56.5131C29.8545 56.0027 29.661 55.4605 29.5212 54.897L29.4459 54.5887L29.1126 54.61L28.7792 54.6419L28.6932 54.2485C28.6502 54.0359 28.5965 53.7063 28.5749 53.5255L28.5427 53.1853L28.2631 52.9408C28.1018 52.8026 27.9405 52.6644 27.9083 52.6431C27.8545 52.6006 27.833 52.5262 27.833 52.4624V52.3348L29.1771 52.3454L30.5212 52.3561L30.5642 52.4943L30.6072 52.6325L31.0696 52.6538C31.3276 52.6644 32.1448 52.6856 32.876 52.7069L34.2201 52.7388L34.5642 52.2072L34.919 51.6756H35.3707L35.3599 50.5699L35.3491 49.4642L34.7577 49.2091C32.8545 48.3798 31.7362 47.4336 31.3169 46.2853C31.2309 46.0514 31.2309 45.9664 31.2094 44.9032C31.1986 43.8507 31.1986 43.755 31.2739 43.5211C31.4244 42.9895 31.8438 42.5749 32.3814 42.4366C32.5642 42.3835 33.0481 42.3835 35.5857 42.3835L38.5749 42.3941L38.9083 42.5536C39.3061 42.745 39.4889 42.8832 39.7147 43.1809C39.9728 43.5211 40.0481 43.7869 40.0481 44.4354C40.0481 45.3604 39.9836 46.1578 39.8868 46.4767C39.747 46.9126 39.5319 47.3272 39.2631 47.6994C38.7255 48.3798 37.747 49.0602 36.8545 49.3685L36.5964 49.4642L36.6072 50.5806L36.618 51.6969L36.8545 51.7182L37.0911 51.7394L37.4137 52.2178L37.7255 52.6963H39.1663C39.962 52.6963 40.661 52.7069 40.7255 52.7175C40.833 52.7388 40.8545 52.7282 40.9621 52.5474L41.0911 52.3561H42.3276C43.2524 52.3135 43.5319 52.3348 43.5319 52.3667Z" fill="black"/>
<path d="M37.8538 55.42C37.6495 55.5369 37.5097 55.5901 37.4774 55.5688C37.4452 55.5582 37.2946 55.4306 37.1333 55.3137L36.843 55.0798L36.5419 55.3987C35.886 56.1004 35.8645 56.1323 35.671 56.143C35.3699 56.1748 35.3054 56.1217 34.9398 55.5795C34.7463 55.303 34.5957 55.0691 34.5957 55.0691C34.5957 55.0691 34.4559 55.0479 34.2946 55.0372L33.9936 55.0054L33.8538 55.2924L33.714 55.5795L33.4667 55.505C33.2731 55.4413 33.0796 55.3668 32.8968 55.2818L32.5742 55.1223V54.5163L35.4344 54.5269L38.2946 54.5376L38.3054 54.8246C38.3161 55.1648 38.3269 55.1542 37.8538 55.42Z" fill="black"/>
<path d="M64.7364 42.4448C64.7256 42.4023 64.7256 42.3279 64.7149 42.2109C62.1342 41.9345 54.7686 41.7644 47.9299 47.3461C47.9299 47.3461 45.7256 37.3522 35.403 37.3522C25.0805 37.3522 21.2525 47.3461 21.2525 47.3461C15.4676 41.1903 7.72562 41.6368 4.92992 42.0408C4.92992 42.1046 4.91917 42.179 4.91917 42.2428C4.83315 43.7844 4.87616 44.518 5.13422 45.4855C5.94067 48.5156 8.42455 51.8539 12.317 55.1285C18.6934 60.4869 27.3385 64.3569 33.8869 64.8034C40.7149 65.2606 50.7901 61.3162 57.4998 55.5538C58.5536 54.6288 59.5428 53.6507 60.4676 52.6088C61.1342 51.8433 62.1235 50.525 62.0482 50.525C62.0267 50.525 62.0482 50.5037 62.0912 50.4824C62.1235 50.4612 62.1557 50.4293 62.1342 50.408C62.1235 50.3974 62.145 50.3655 62.1772 50.3549C62.2095 50.3442 62.231 50.323 62.2202 50.3017C62.2095 50.2804 62.2203 50.2592 62.2633 50.2485C62.2955 50.2379 62.3063 50.206 62.2955 50.1847C62.2848 50.1635 62.2955 50.1422 62.317 50.1422C62.3385 50.1422 62.36 50.1103 62.36 50.0891C62.36 50.0678 62.3815 50.0359 62.403 50.0359C62.4245 50.0359 62.4461 50.0146 62.4461 49.9934C62.4783 49.9083 62.5321 49.8233 62.5858 49.7488C62.7471 49.5043 63.3923 48.3667 63.4783 48.1753C64.0912 46.8039 64.4783 45.5812 64.6611 44.3586C64.7256 43.7738 64.7794 42.7 64.7364 42.4448ZM37.8547 55.4156C37.6504 55.5325 37.5106 55.5857 37.4783 55.5644C37.4461 55.5538 37.2955 55.4262 37.1342 55.3092L36.8439 55.0753L36.5428 55.3943C35.8869 56.096 35.8654 56.1279 35.6719 56.1385C35.3708 56.1704 35.3063 56.1173 34.9407 55.575C34.7471 55.2986 34.5966 55.0647 34.5966 55.0647C34.5966 55.0647 34.4568 55.0435 34.2955 55.0328L33.9944 55.0009L33.8546 55.288L33.7149 55.575L33.4676 55.5006C33.274 55.4368 33.0805 55.3624 32.8977 55.2773L32.5751 55.1179V54.5119L35.4353 54.5225L38.2955 54.5331L38.3063 54.8202C38.317 55.1604 38.3278 55.1498 37.8547 55.4156ZM43.231 53.5019C43.0697 54.1079 42.9407 54.5969 42.9407 54.6182C42.8224 54.6288 42.7149 54.6394 42.5966 54.6288H42.2525L41.7901 55.7451C41.5321 56.3512 41.2955 56.9146 41.2633 56.9997L41.1987 57.1485L40.9729 56.7871L40.7471 56.4256V53.4806L40.6611 53.5019C40.4783 53.5444 39.1772 53.7145 38.6073 53.7676C36.2525 54.0015 33.8869 53.9484 31.5428 53.6188C31.1665 53.5656 30.8439 53.5231 30.8331 53.5337C30.8224 53.5444 30.8332 54.2248 30.8547 55.0647L30.8869 56.5744L30.7041 56.8509C30.6073 56.9997 30.5106 57.1273 30.5106 57.1379C30.4783 57.1698 30.3708 56.9997 30.1235 56.5106C29.8547 56.0003 29.6611 55.4581 29.5213 54.8946L29.446 54.5863L29.1127 54.6075L28.7794 54.6394L28.6934 54.2461C28.6503 54.0334 28.5966 53.7038 28.5751 53.5231L28.5428 53.1829L28.2633 52.9384C28.102 52.8002 27.9407 52.6619 27.9084 52.6407C27.8547 52.5982 27.8331 52.5237 27.8331 52.4599V52.3324L29.1772 52.343L30.5213 52.3536L30.5643 52.4918L30.6073 52.63L31.0697 52.6513C31.3278 52.6619 32.145 52.6832 32.8762 52.7045L34.2202 52.7364L34.5643 52.2048L34.9192 51.6732H35.3708L35.36 50.5675L35.3493 49.4618L34.7579 49.2066C32.8547 48.3773 31.7364 47.4311 31.317 46.2829C31.231 46.049 31.231 45.9639 31.2095 44.9008C31.1987 43.8482 31.1987 43.7525 31.274 43.5186C31.4245 42.9871 31.8439 42.5724 32.3815 42.4342C32.5643 42.381 33.0482 42.381 35.5858 42.381L38.5751 42.3917L38.9084 42.5512C39.3063 42.7425 39.4891 42.8807 39.7149 43.1784C39.9729 43.5186 40.0482 43.7844 40.0482 44.433C40.0482 45.3579 39.9837 46.1553 39.8869 46.4743C39.7471 46.9102 39.5321 47.3248 39.2633 47.6969C38.7256 48.3773 37.7471 49.0578 36.8547 49.3661L36.5966 49.4618L36.6073 50.5781L36.6181 51.6945L36.8547 51.7157L37.0912 51.737L37.4138 52.2154L37.7256 52.6938H39.1665C39.9622 52.6938 40.6611 52.7045 40.7256 52.7151C40.8331 52.7364 40.8547 52.7257 40.9622 52.545L41.0912 52.3536H42.3278C43.2848 52.3536 43.5643 52.3643 43.5643 52.3961C43.5321 52.3855 43.3923 52.9065 43.231 53.5019Z" fill="white"/>
<path d="M64.6501 41.3629C64.6286 40.8845 64.5856 40.2147 64.5534 39.8851C64.091 35.0583 62.8437 31.1139 60.4781 26.9356C60.3813 26.7762 60.2953 26.6167 60.2415 26.4891C60.22 26.4572 60.2093 26.4253 60.1985 26.404C60.5319 25.4153 61.8974 21.2795 62.9835 16.5484C64.4566 10.1268 65.3921 2.62084 62.5319 0.366906C62.5319 0.366906 57.5856 0.00542611 50.962 6.427C49.1663 8.2025 47.5211 10.1268 46.0587 12.1788L45.5964 12.0299C42.9297 11.1688 40.1663 10.6372 37.3813 10.4564C36.5426 10.3926 33.4136 10.3926 32.3921 10.4564C29.306 10.6584 26.9405 11.1156 24.2523 12.0406C24.1448 12.0831 24.048 12.115 23.9512 12.1469C22.4351 10.1056 20.7469 8.19187 18.8867 6.43763C11.9942 -0.0158367 6.86519 0.356273 6.86519 0.356273C3.83294 2.68462 4.86519 10.5309 6.43509 17.1651C7.46734 21.556 8.73616 25.4153 9.20928 26.808C9.17702 26.8825 9.13401 26.9675 9.091 27.0419C6.58563 32.0601 5.23078 36.8976 4.9082 42.0433C7.71465 41.6393 15.4458 41.1822 21.2415 47.3486C21.2415 47.3486 25.0695 37.3547 35.3921 37.3547C45.7147 37.3547 47.919 47.3486 47.919 47.3486C54.7577 41.7669 62.1233 41.9477 64.7039 42.2134C64.6931 42.0008 64.6716 41.6819 64.6501 41.3629ZM11.2415 22.7999C11.2415 22.7999 7.22003 12.8592 8.25229 7.18185C8.42433 6.225 8.74692 5.38509 9.25229 4.74718C9.25229 4.74718 13.8114 5.19372 21.1663 13.2738C21.1663 13.2738 19.7684 13.9436 17.8975 15.3683C17.8975 15.3683 17.8867 15.3789 17.8759 15.3789C15.8437 16.9205 13.2415 19.3658 11.2415 22.7999ZM28.3061 37.5674C28.2415 37.695 27.919 37.8332 27.5534 37.8863C27.1878 37.9395 26.0695 37.9076 25.4351 37.8332C23.1555 37.5355 20.7362 36.8444 18.9727 35.9939C17.9835 35.5154 17.2738 35.037 16.7469 34.5161L16.4458 34.2077L16.4136 33.8037C16.3598 33.102 16.3706 31.9963 16.4566 31.603C16.5104 31.2734 16.6286 30.9544 16.7899 30.6674C16.8759 30.5611 16.8759 30.5611 17.263 30.5611C17.7362 30.5611 18.134 30.6355 18.7792 30.8375C20.1018 31.2415 22.0695 32.2196 24.4673 33.6443C26.4458 34.8138 27.1878 35.3879 27.7577 36.1746C28.1448 36.6637 28.4028 37.3547 28.3061 37.5674ZM53.6394 34.0483C53.6071 34.2184 53.1018 34.7287 52.5964 35.1008C51.1125 36.1746 48.4566 37.174 45.7577 37.6524C44.22 37.9289 42.6824 37.9714 42.22 37.7481C41.919 37.5993 41.8759 37.4823 41.9835 37.0996C42.2093 36.3022 42.9405 35.4304 44.0803 34.6118C44.6609 34.1971 47.0157 32.7831 48.1125 32.1877C49.919 31.2096 51.3813 30.6248 52.3706 30.4866C52.6824 30.4441 53.0587 30.4335 53.177 30.4866C53.3706 30.5611 53.5856 31.1245 53.6716 31.805C53.7147 32.1664 53.6931 33.7612 53.6394 34.0483ZM51.8544 15.3683L51.8329 15.3577C50.0265 13.933 48.6716 13.2632 48.6716 13.2632C55.7792 5.18308 60.177 4.73655 60.177 4.73655C60.6609 5.38509 60.9727 6.21436 61.1448 7.17122C62.1448 12.8486 58.263 22.7999 58.263 22.7999C56.6394 19.9399 54.4566 17.4096 51.8544 15.3683Z" fill="#FFA409"/>
<path d="M61.1548 7.16971C60.3161 7.0634 56.3483 7.04213 51.8537 15.3668L51.8322 15.3562C50.0257 13.9315 48.6709 13.2617 48.6709 13.2617C55.7784 5.18158 60.1763 4.73505 60.1763 4.73505C60.6709 5.38358 60.9827 6.21286 61.1548 7.16971Z" fill="#FF9300"/>
<path d="M58.2729 22.7989C56.6385 19.9283 54.4664 17.4086 51.8535 15.3673C56.3481 7.04265 60.3051 7.06391 61.1546 7.17023C62.1546 12.8582 58.2729 22.7989 58.2729 22.7989Z" fill="#FF8300"/>
<path d="M61.3166 7.20444C61.2628 7.19381 61.209 7.18318 61.1553 7.17255L61.3166 7.20444Z" fill="#FF8300"/>
<path d="M21.1662 13.2617C21.1662 13.2617 19.7683 13.9315 17.8974 15.3562C17.8974 15.3562 17.8866 15.3668 17.8759 15.3668C13.2199 7.0315 9.12318 7.0634 8.24146 7.16971C8.4135 6.21286 8.73608 5.37295 9.24146 4.73505C9.25221 4.73505 13.8113 5.18158 21.1662 13.2617Z" fill="#FF9300"/>
<path d="M17.8869 15.3673C15.8438 16.9195 13.2417 19.3542 11.2417 22.7989C11.2417 22.7989 7.22019 12.8582 8.25245 7.17023C9.12342 7.06391 13.2309 7.04265 17.8869 15.3673Z" fill="#FF8300"/>
<path d="M8.25212 7.17255C8.19836 7.18318 8.13384 7.19381 8.08008 7.20444L8.25212 7.17255Z" fill="#FF8300"/>
<path d="M47.3917 28.3181C47.3917 28.3181 43.9508 28.5308 44.381 25.8728C44.8111 23.2149 47.4992 22.896 48.2519 23.0023C49.0046 23.1086 52.0154 24.1718 51.4777 26.4044C50.9401 28.6371 50.1874 28.2118 49.7573 28.3181C49.3272 28.4245 47.3917 28.3181 47.3917 28.3181Z" fill="white"/>
<path d="M22.0148 28.3181C22.0148 28.3181 18.5739 28.5308 19.004 25.8728C19.4341 23.2149 22.1223 22.896 22.875 23.0023C23.6277 23.1086 26.6384 24.1718 26.1008 26.4044C25.5631 28.6371 24.8105 28.2118 24.3803 28.3181C23.9502 28.4245 22.0148 28.3181 22.0148 28.3181Z" fill="white"/>
</g>
<defs>
<clipPath id="clip0_337_1238">
<rect width="69" height="69" fill="white" transform="translate(0.429688 0.35614)"/>
</clipPath>
</defs>
</svg>

<svg xmlns="http://www.w3.org/2000/svg" width="70" height="70" fill="none"><g clip-path="url(#a)"><path fill="#F00500" d="M50.951 6.427a44 44 0 0 0-4.903 5.752l-.463-.149a34 34 0 0 0-8.215-1.573c-.838-.064-3.967-.064-4.989 0-3.086.202-5.451.659-8.14 1.584-.107.042-.204.074-.3.106a43.4 43.4 0 0 0-5.065-5.71 35.57 35.57 0 0 1 28.71-1.498c1 .372 1.978.808 2.935 1.276zM67.596 46.752a33.1 33.1 0 0 1-6.021 10.44 37 37 0 0 1-4.71 4.562 34.9 34.9 0 0 1-13.58 6.623 36 36 0 0 1-16.689 0 34.8 34.8 0 0 1-13.58-6.623 37 37 0 0 1-4.71-4.561c-7.58-8.856-9.882-21.02-6.022-31.98a34.6 34.6 0 0 1 2.742-5.848c.506-.85 1.13-1.807 1.43-2.2 1.033 4.39 2.301 8.25 2.775 9.642-.033.075-.076.16-.119.234-2.505 5.018-3.86 9.856-4.182 15.001 0 .064-.011.139-.011.203-.086 1.541-.043 2.275.215 3.242.806 3.03 3.29 6.369 7.183 9.643 6.376 5.358 15.021 9.229 21.57 9.675 6.828.457 16.903-3.487 23.612-9.25a34 34 0 0 0 2.968-2.945c.667-.765 1.656-2.083 1.58-2.083-.02 0 0-.022.044-.043.032-.021.064-.053.043-.074-.011-.011.01-.043.043-.053s.054-.032.043-.054c-.01-.02 0-.042.043-.053.032-.01.043-.042.032-.064-.01-.02 0-.042.022-.042s.043-.032.043-.053c0-.022.021-.053.043-.053s.043-.022.043-.043c.032-.085.086-.17.14-.244a28 28 0 0 0 .892-1.574c.613-1.371 1-2.594 1.183-3.817.086-.585.14-1.658.096-1.913-.01-.043-.01-.117-.021-.234-.022-.213-.032-.532-.054-.851a36 36 0 0 0-.097-1.478c-.462-4.827-1.71-8.771-4.075-12.95a4 4 0 0 1-.236-.446c-.022-.032-.033-.064-.043-.085.333-.989 1.698-5.124 2.785-9.855l.021.02.161.213c.28.373 1.022 1.478 1.355 2.01a33.3 33.3 0 0 1 3.538 7.814 32.82 32.82 0 0 1-.495 20.147"/><path fill="#000" d="M53.639 34.051c-.032.17-.538.68-1.043 1.053-1.484 1.074-4.14 2.073-6.839 2.552-1.537.276-3.075.319-3.537.095-.301-.149-.344-.265-.237-.648.226-.798.957-1.67 2.097-2.488.58-.415 2.935-1.829 4.032-2.424 1.807-.978 3.269-1.563 4.258-1.701.312-.043.688-.053.807 0 .193.074.408.638.494 1.318.043.362.022 1.956-.032 2.243M28.305 37.57c-.064.127-.387.265-.753.318-.365.054-1.483.022-2.118-.053-2.28-.297-4.699-.989-6.462-1.839-.99-.478-1.699-.957-2.226-1.478l-.301-.308-.032-.404c-.054-.702-.043-1.807.043-2.2.053-.33.172-.65.333-.937.086-.106.086-.106.473-.106.473 0 .871.075 1.516.277 1.323.404 3.29 1.382 5.689 2.806 1.978 1.17 2.72 1.744 3.29 2.53.387.49.645 1.18.548 1.393M43.532 52.367c0 .032-.13.542-.29 1.148-.162.606-.29 1.095-.29 1.116-.119.01-.227.022-.345.01h-.344l-.473 1.107c-.258.606-.495 1.17-.527 1.254l-.064.149-.226-.362-.226-.361v-2.945l-.086.021c-.183.043-1.484.213-2.054.266-2.355.234-4.72.18-7.064-.149-.377-.053-.7-.095-.71-.085s0 .691.022 1.531l.032 1.51-.183.276c-.097.15-.194.277-.194.287-.032.032-.14-.138-.387-.627a7.1 7.1 0 0 1-.602-1.616l-.075-.308-.333.021-.334.032-.086-.394a11 11 0 0 1-.118-.722l-.032-.34-.28-.245a10 10 0 0 0-.355-.298c-.053-.042-.075-.117-.075-.18v-.128l1.344.01 1.344.011.043.138.043.139.463.02c.258.011 1.075.033 1.806.054l1.344.032.344-.532.355-.531h.452l-.011-1.106-.01-1.106-.592-.255c-1.904-.83-3.022-1.775-3.441-2.924-.086-.234-.086-.319-.108-1.382-.01-1.052-.01-1.148.065-1.382.15-.532.57-.946 1.107-1.084.183-.053.667-.053 3.205-.053l2.989.01.333.16c.398.191.58.33.807.627.258.34.333.606.333 1.254 0 .925-.064 1.723-.161 2.042-.14.436-.355.85-.624 1.222-.538.68-1.516 1.361-2.408 1.67l-.259.095.011 1.117.011 1.116.236.021.237.021.323.479.311.478h1.441c.796 0 1.495.01 1.56.022.107.02.129.01.236-.17l.13-.192h1.236c.924-.043 1.204-.021 1.204.01"/><path fill="#000" d="M37.854 55.42c-.204.117-.344.17-.377.149-.032-.01-.182-.138-.344-.255l-.29-.234-.301.319c-.656.701-.678.733-.871.744-.301.032-.366-.021-.731-.563-.194-.277-.344-.51-.344-.51s-.14-.022-.301-.033l-.301-.032-.14.287-.14.288-.247-.075a5 5 0 0 1-.57-.223l-.323-.16v-.606l2.86.01 2.86.012.011.287c.011.34.022.33-.451.595"/><path fill="#fff" d="M64.736 42.445c-.01-.043-.01-.117-.021-.234-2.58-.276-9.946-.447-16.785 5.135 0 0-2.204-9.994-12.527-9.994s-14.15 9.994-14.15 9.994c-5.785-6.156-13.527-5.71-16.323-5.305 0 .064-.01.138-.01.202-.087 1.541-.044 2.275.214 3.242.807 3.03 3.29 6.369 7.183 9.644 6.376 5.358 15.022 9.228 21.57 9.674 6.828.458 16.903-3.487 23.613-9.25a34 34 0 0 0 2.968-2.944c.666-.766 1.655-2.084 1.58-2.084-.021 0 0-.021.043-.043.032-.02.065-.053.043-.074-.01-.01.011-.043.043-.053s.054-.032.043-.053c-.01-.022 0-.043.043-.053.032-.011.043-.043.032-.064s0-.043.022-.043.043-.032.043-.053.022-.053.043-.053c.022 0 .043-.021.043-.043a1 1 0 0 1 .14-.244 28 28 0 0 0 .892-1.574c.613-1.371 1-2.594 1.183-3.816.065-.585.118-1.659.075-1.914m-26.881 12.97c-.205.117-.344.17-.377.15-.032-.011-.183-.139-.344-.256l-.29-.234-.301.32c-.656.701-.678.733-.871.743-.301.032-.366-.02-.731-.563-.194-.276-.344-.51-.344-.51s-.14-.021-.302-.032l-.3-.032-.14.287-.14.287-.247-.074a5 5 0 0 1-.57-.224l-.323-.16v-.605l2.86.01 2.86.011.011.287c.011.34.022.33-.451.596m5.376-1.913c-.161.606-.29 1.095-.29 1.116-.119.01-.226.021-.344.01h-.345l-.462 1.117c-.258.606-.495 1.17-.527 1.255l-.064.148-.226-.36-.226-.362V53.48l-.086.02c-.183.043-1.484.214-2.054.267-2.355.233-4.72.18-7.064-.15-.377-.052-.7-.095-.71-.084s0 .69.022 1.53l.032 1.51-.183.277c-.097.149-.193.276-.193.287-.033.032-.14-.138-.387-.627a7.1 7.1 0 0 1-.603-1.616l-.075-.309-.333.022-.334.031-.086-.393a11 11 0 0 1-.118-.723l-.032-.34-.28-.245c-.161-.138-.322-.276-.355-.297-.053-.043-.075-.117-.075-.181v-.128l1.344.011 1.344.01.043.139.043.138.463.021c.258.01 1.075.032 1.806.053l1.344.032.344-.531.355-.532h.452l-.011-1.105-.01-1.106-.592-.255c-1.903-.83-3.022-1.776-3.441-2.924-.086-.234-.086-.32-.108-1.382-.01-1.053-.01-1.149.065-1.382.15-.532.57-.947 1.108-1.085.182-.053.666-.053 3.204-.053l2.99.01.332.16c.398.191.581.33.807.627.258.34.333.606.333 1.255 0 .925-.064 1.722-.161 2.041a4.4 4.4 0 0 1-.624 1.223c-.537.68-1.516 1.36-2.408 1.67l-.258.095.01 1.116.011 1.116.237.022.236.021.323.478.312.479h1.44c.796 0 1.495.01 1.56.021.107.021.129.01.236-.17l.13-.191h1.236c.957 0 1.236.01 1.236.042-.032-.01-.172.51-.333 1.106"/><path fill="#FFA409" d="M64.65 41.363a36 36 0 0 0-.097-1.478c-.462-4.827-1.71-8.771-4.075-12.95a4 4 0 0 1-.236-.446c-.022-.032-.033-.064-.043-.085.333-.989 1.698-5.125 2.785-9.856 1.473-6.421 2.408-13.927-.452-16.181 0 0-4.946-.362-11.57 6.06a44 44 0 0 0-4.903 5.752l-.463-.15a34 34 0 0 0-8.215-1.573c-.838-.063-3.967-.063-4.989 0-3.086.202-5.452.66-8.14 1.585-.107.042-.204.074-.3.106a43.4 43.4 0 0 0-5.065-5.71C11.994-.015 6.865.358 6.865.358c-3.032 2.328-2 10.174-.43 16.808 1.032 4.391 2.301 8.25 2.774 9.643-.032.075-.075.16-.118.234-2.505 5.018-3.86 9.856-4.183 15.001 2.807-.404 10.538-.86 16.333 5.306 0 0 3.829-9.994 14.151-9.994 10.323 0 12.527 9.994 12.527 9.994 6.839-5.582 14.204-5.401 16.785-5.136-.01-.212-.032-.531-.054-.85M11.242 22.8S7.22 12.86 8.252 7.182c.172-.957.495-1.797 1-2.435 0 0 4.56.447 11.914 8.527 0 0-1.398.67-3.268 2.094 0 0-.011.01-.022.01-2.032 1.543-4.635 3.988-6.635 7.422m17.064 14.767c-.065.128-.387.266-.753.32-.365.053-1.483.02-2.118-.054-2.28-.297-4.699-.989-6.462-1.84-.99-.478-1.7-.956-2.226-1.477l-.301-.308-.032-.404c-.054-.702-.043-1.808.043-2.201.053-.33.172-.649.333-.936.086-.106.086-.106.473-.106.473 0 .871.075 1.516.276 1.323.404 3.29 1.383 5.688 2.807 1.979 1.17 2.72 1.744 3.29 2.53.388.49.646 1.18.55 1.393m25.333-3.519c-.032.17-.537.68-1.043 1.053-1.483 1.074-4.14 2.073-6.838 2.551-1.538.277-3.076.32-3.538.096-.301-.149-.344-.266-.236-.648.225-.798.956-1.67 2.096-2.488.58-.415 2.936-1.829 4.032-2.424 1.807-.978 3.27-1.563 4.259-1.701.311-.043.688-.053.806 0 .194.074.409.638.495 1.318.043.361.021 1.956-.033 2.243m-1.785-18.68-.021-.01c-1.806-1.425-3.161-2.095-3.161-2.095 7.107-8.08 11.505-8.526 11.505-8.526.484.648.796 1.477.968 2.434 1 5.678-2.882 15.629-2.882 15.629a25.4 25.4 0 0 0-6.409-7.432"/><path fill="#FF9300" d="M61.155 7.17c-.839-.107-4.807-.128-9.301 8.197l-.022-.01c-1.806-1.425-3.161-2.095-3.161-2.095 7.107-8.08 11.505-8.527 11.505-8.527.495.649.807 1.478.979 2.435"/><path fill="#FF8300" d="M58.273 22.799a25.3 25.3 0 0 0-6.42-7.432c4.495-8.324 8.452-8.303 9.302-8.197 1 5.688-2.882 15.629-2.882 15.629M61.317 7.204l-.162-.031z"/><path fill="#FF9300" d="M21.166 13.262s-1.398.67-3.269 2.094c0 0-.01.01-.021.01C13.22 7.033 9.123 7.064 8.24 7.17c.173-.957.495-1.797 1-2.435.011 0 4.57.447 11.925 8.527"/><path fill="#FF8300" d="M17.887 15.367c-2.043 1.552-4.645 3.987-6.645 7.432 0 0-4.022-9.94-2.99-15.629.871-.106 4.979-.127 9.635 8.197"/><path fill="#FF8300" d="M8.252 7.173c-.054.01-.118.02-.172.031z"/><path fill="#fff" d="M47.392 28.318s-3.441.213-3.011-2.445 3.118-2.977 3.87-2.87c.754.106 3.764 1.169 3.227 3.401-.538 2.233-1.29 1.808-1.72 1.914s-2.366 0-2.366 0M22.015 28.318s-3.441.213-3.011-2.445 3.118-2.977 3.871-2.87 3.763 1.169 3.226 3.401c-.538 2.233-1.29 1.808-1.72 1.914s-2.366 0-2.366 0"/></g><defs><clipPath id="a"><path fill="#fff" d="M.43.356h69v69h-69z"/></clipPath></defs></svg>
